X:108
T: Zen Celtic
C: Michael Kevin Daly
L:1/8
M:4/4
R:Reel
K:D
DF AB AF E2 | FA AB Af e2 | de dc BA FD | GB AF AF ED |
(3Bcd AF AF ED | (3Bcd e^c d2 A2 | (3fed cd BA FA | (3Bcd ec ed d2 :||:
Bf fd ec B2 | df af gf ed | ef fd cd BA | FA BA FE E2 |
Bd de dc Bc | df af gf ed | (3efg fd cd BA | FA Bd ed d2 :||
